packages/blockchain-info-components/src/Images/img/proof-of-address.svg

<svg fill="none" height="32" viewBox="0 0 32 32" width="32" xmlns="http://www.w3.org/2000/svg"><path d="m11.9233 26c.5743 0 1.0398-.4656 1.0398-1.0399v-5.0174c0-.5743.4656-1.0398 1.0399-1.0398h4.0035c.5743 0 1.0399.4655 1.0399 1.0398v5.0174c0 .5743.4655 1.0399 1.0399 1.0399h4.0035c.5743 0 1.0398-.4656 1.0398-1.0399v-11.1233c0-.6418-.2963-1.2476-.8029-1.6417l-7.6835-5.97605c-.3755-.29207-.9014-.29207-1.2769 0l-7.68351 5.97605c-.5066.3941-.80291.9999-.80291 1.6417v11.1233c0 .5743.46557 1.0399 1.03987 1.0399z" fill="#0c6cf2"/></svg>

<svg width="32" height="32" viewBox="0 0 32 32" fill="none" xmlns="http://www.w3.org/2000/svg">
<path d="M11.9233 26C12.4976 26 12.9631 25.5344 12.9631 24.9601V19.9427C12.9631 19.3684 13.4287 18.9029 14.003 18.9029H18.0065C18.5808 18.9029 19.0464 19.3684 19.0464 19.9427V24.9601C19.0464 25.5344 19.5119 26 20.0863 26H24.0898C24.6641 26 25.1296 25.5344 25.1296 24.9601V13.8368C25.1296 13.195 24.8333 12.5892 24.3267 12.1951L16.6432 6.21905C16.2677 5.92698 15.7418 5.92698 15.3663 6.21905L7.68279 12.1951C7.17619 12.5892 6.87988 13.195 6.87988 13.8368V24.9601C6.87988 25.5344 7.34545 26 7.91975 26H11.9233Z" fill="#0C6CF2"/>
</svg>
